X:388
T:Reel 388
M:4/4
K:Dmix
L:1/8
A2FA FGAB|cAGF EFGE|D2AD FGAd|cAGE EDD2:|Addc A2AG|EGCE cEGE|ADdc A2AG|EDDE FDD2|Addc A2GE|EDDD EFGB|Addc A2cA|EDCE EDD2|
